X: 3
T: The Hag At The Churn
R: jig
M: 6/8
L: 1/8
K: Dmix
|:A2G ADD|A2G Adc|A2G ADD|EFG EFG|
AB/A/G ADD|AB/A/G Adc|AB/A/G ADD|EFG EFG||
|:AdB c3|Add efg|AdB c2G|E3 GED|
AdB c3|Add efg|fge dcA|GEF GED||


Tune 829	Setting 22286

